packages/core/src/svgs/peri.svg

<svg width="24" height="24" viewBox="0 0 24 24" fill="none" xmlns="http://www.w3.org/2000/svg">
<g clip-path="url(#clip0_31_15910)">
<path d="M0 0H24V24H0V0Z" fill="#14085A"/>
<path d="M12.0002 18.8574C13.5631 18.8578 15.0793 18.3243 16.2976 17.3453C17.5158 16.3663 18.3631 15.0005 18.699 13.4741C19.035 11.9477 18.8394 10.3524 18.1447 8.95236C17.45 7.55233 16.2979 6.43161 14.8793 5.77585C13.4606 5.12009 11.8605 4.96864 10.344 5.34659C8.82744 5.72453 7.48553 6.6092 6.54052 7.85403C5.59551 9.09887 5.1041 10.6292 5.14769 12.1915C5.19128 13.7538 5.76726 15.2543 6.78022 16.4445L8.7945 10.7016C8.88022 10.4916 9.19307 10.0716 9.73736 10.0716C9.87879 10.0759 10.2131 10.1831 10.4445 10.5216C10.7658 10.3772 11.1124 10.2971 11.4645 10.2859C12.0174 10.2859 13.2216 10.8516 12.8788 12.1931C12.598 13.2045 12.2632 14.2003 11.8759 15.1759C12.0902 15.1459 12.6302 14.9445 13.0331 14.3831C13.2955 14.0345 13.5076 13.6507 13.6631 13.2431C13.7231 13.1316 13.9202 12.9131 14.2802 12.9131C14.7216 12.9131 14.9059 13.3202 14.9059 13.6716C14.9059 14.0231 13.9159 16.7145 10.7188 16.7145L10.6074 16.7059C10.0845 16.6631 9.1245 16.5859 8.77307 16.4059H8.71736L8.11736 17.6531C9.22307 18.4116 10.5602 18.8574 12.0002 18.8574ZM9.1545 14.8545C9.05165 15.2831 9.33022 15.3688 9.45022 15.4116C9.47593 15.4159 9.49307 15.4245 9.49736 15.4288C10.0931 15.4288 10.2859 14.9916 10.3074 14.7731C10.5474 14.0659 11.0488 12.5831 11.1088 12.2959C11.1816 11.9402 11.1516 11.5716 10.6802 11.5716C10.3074 11.5716 10.1231 11.8802 10.0716 12.0345C9.81022 12.8059 9.25736 14.4431 9.1545 14.8545Z" fill="white"/>
</g>
<defs>
<clipPath id="clip0_31_15910">
<rect width="24" height="24" fill="white"/>
</clipPath>
</defs>
</svg>

<svg xmlns="http://www.w3.org/2000/svg" width="24" height="24" fill="none" viewBox="0 0 24 24"><g clip-path="url(#a)"><path fill="#14085A" d="M0 0h24v24H0z"/><path fill="#fff" d="M12 18.857a6.858 6.858 0 1 0-5.22-2.412l2.014-5.743c.086-.21.4-.63.943-.63.142.004.476.111.707.45a2.7 2.7 0 0 1 1.02-.236c.553 0 1.758.566 1.415 1.907a29 29 0 0 1-1.003 2.983c.214-.03.754-.232 1.157-.793.263-.348.475-.732.63-1.14a.7.7 0 0 1 .617-.33c.442 0 .626.407.626.759 0 .351-.99 3.043-4.187 3.043l-.112-.01c-.522-.042-1.482-.12-1.834-.3h-.056l-.6 1.248A6.84 6.84 0 0 0 12 18.857m-2.845-4.002c-.103.428.175.514.295.557a.1.1 0 0 1 .047.017c.596 0 .789-.437.81-.656.24-.707.742-2.19.802-2.477.073-.356.043-.724-.429-.724-.373 0-.557.308-.608.463-.262.77-.815 2.408-.917 2.82"/></g><defs><clipPath id="a"><path fill="#fff" d="M0 0h24v24H0z"/></clipPath></defs></svg>
